src/assets/selectIcons/materiale_3.svg

<svg xmlns="http://www.w3.org/2000/svg" viewBox="0 0 512 512"><path d="M0 0h512v512H0z"/><path fill="#fff" d="M165.446 34.793c-23.17.023-45.634 12.97-54.612 36.323l-83.67 326.167c-12.673 94.537 81.04 88.742 137.957 65.396 81.422-33.396 181.723-29.213 263.244-8.26l6.45-17.218c-7.38-2.638-15.334-5.988-22.252-8.039.473-4.364.955-8.72 1.437-13.074l23.038 4.118 3.234-18.1c-8.074-1.441-16.147-2.885-24.221-4.328.615-5.403 1.238-10.799 1.87-16.189l22.134 3.278 2.693-18.186c-7.548-1.12-15.098-2.238-22.647-3.355.456-3.765.91-7.53 1.375-11.29 7.615 1.092 15.231 2.183 22.847 3.273l2.607-18.2-23.164-3.316c.46-3.593 1.29-9.988 1.76-13.577l22.781 2.55 2.045-17.57c-7.467-.834-14.935-1.671-22.402-2.508.783-5.767 1.917-11.182 2.728-16.943 7.67 1.12 15.341 2.244 23.012 3.368l2.31-17.139c-7.683-1.127-15.366-2.25-23.05-3.374.792-5.415 1.252-10.129 2.071-15.542 7.074 1.264 14.149 2.528 21.223 3.79l3.232-18.1-21.654-3.866c.736-4.676 1.473-9.35 2.23-14.026 6.978 1.673 13.955 3.347 20.932 5.022L465.276 208c-7.401-1.778-14.803-3.554-22.204-5.33a2809.25 2809.25 0 0 1 2.132-12.477c6.98 1.583 13.961 3.165 20.942 4.746l4.064-17.93c-7.271-1.65-14.543-3.298-21.815-4.946.769-4.267 1.55-8.535 2.342-12.805l20.742 5.151 4.431-17.843-21.751-5.405c.741-3.847 1.494-7.696 2.254-11.548l20.28 5.014 4.413-17.849-21.057-5.207a2444.47 2444.47 0 0 1 2.571-12.374c8.386 2.41 13.13 2.364 21.41 4.99L486 88.456c-83.808-26.776-179.25-33.22-244.192-6.453-24.337 114.036-37.305 221.4-68.032 338.64-3.407 13-14.47 21.89-27.342 28.064-27 11.608-64.033 13.778-84.63-4.91-10.971-10.34-16.174-27.036-12.467-47.579 2.303-12.762 10.883-21.986 20.834-26.378 19.749-7.074 43.492-4.25 58.893 7.95 12.463 9.302 12.318 38.283-3.882 31.82-9.639-6.17-1.964-11.851-8.615-17.378-11.6-7.428-26.42-10.872-38.972-5.57-5.564 2.455-8.887 5.737-10.166 12.822-2.94 16.29.685 24.996 6.985 30.933 18.333 13.49 45.279 10.495 64.068 1.712 10.045-4.82 16.277-11.436 17.511-16.147 30.538-116.518 43.443-224.123 68.293-339.964-11.796-28.344-35.67-41.247-58.84-41.225z"/></svg>

<?xml version="1.0" encoding="UTF-8" standalone="no"?>
<!DOCTYPE svg PUBLIC "-//W3C//DTD SVG 1.1//EN" "http://www.w3.org/Graphics/SVG/1.1/DTD/svg11.dtd">
<svg width="100%" height="100%" viewBox="0 0 512 512" version="1.1" xmlns="http://www.w3.org/2000/svg" xmlns:xlink="http://www.w3.org/1999/xlink" xml:space="preserve" xmlns:serif="http://www.serif.com/" style="fill-rule:evenodd;clip-rule:evenodd;stroke-linejoin:round;stroke-miterlimit:2;">
    <rect x="0" y="0" width="512" height="512" style="fill-rule:nonzero;"/>
    <path d="M165.446,34.793C142.276,34.816 119.812,47.763 110.834,71.116L27.164,397.283C14.491,491.82 108.204,486.025 165.121,462.679C246.543,429.283 346.844,433.466 428.365,454.419L434.815,437.201C427.435,434.563 419.481,431.213 412.563,429.162C413.036,424.798 413.518,420.442 414,416.088L437.038,420.206L440.272,402.106C432.198,400.665 424.125,399.221 416.051,397.778C416.666,392.375 417.289,386.979 417.921,381.589L440.055,384.867L442.748,366.681C435.2,365.561 427.65,364.443 420.101,363.326C420.557,359.561 421.011,355.796 421.476,352.036C429.091,353.128 436.707,354.219 444.323,355.309L446.93,337.109L423.766,333.793C424.226,330.2 425.056,323.805 425.526,320.216L448.307,322.766L450.352,305.196C442.885,304.362 435.417,303.525 427.95,302.688C428.733,296.921 429.867,291.506 430.678,285.745C438.348,286.865 446.019,287.989 453.69,289.113L456,271.974C448.317,270.847 440.634,269.724 432.95,268.6C433.742,263.185 434.202,258.471 435.021,253.058C442.095,254.322 449.17,255.586 456.244,256.848L459.476,238.748L437.822,234.882C438.558,230.206 439.295,225.532 440.052,220.856C447.03,222.529 454.007,224.203 460.984,225.878L465.276,208C457.875,206.222 450.473,204.446 443.072,202.67C443.773,198.509 444.484,194.35 445.204,190.193C452.184,191.776 459.165,193.358 466.146,194.939L470.21,177.009C462.939,175.359 455.667,173.711 448.395,172.063C449.164,167.796 449.945,163.528 450.737,159.258L471.479,164.409L475.91,146.566L454.159,141.161C454.9,137.314 455.653,133.465 456.413,129.613L476.693,134.627L481.106,116.778L460.049,111.571C460.895,107.444 461.752,103.319 462.62,99.197C471.006,101.607 475.75,101.561 484.03,104.187L486,88.456C402.192,61.68 306.75,55.236 241.808,82.003C217.471,196.039 204.503,303.403 173.776,420.643C170.369,433.643 159.306,442.533 146.434,448.707C119.434,460.315 82.401,462.485 61.804,443.797C50.833,433.457 45.63,416.761 49.337,396.218C51.64,383.456 60.22,374.232 70.171,369.84C89.92,362.766 113.663,365.59 129.064,377.79C141.527,387.092 141.382,416.073 125.182,409.61C115.543,403.44 123.218,397.759 116.567,392.232C104.967,384.804 90.147,381.36 77.595,386.662C72.031,389.117 68.708,392.399 67.429,399.484C64.489,415.774 68.114,424.48 74.414,430.417C92.747,443.907 119.693,440.912 138.482,432.129C148.527,427.309 154.759,420.693 155.993,415.982C186.531,299.464 199.436,191.859 224.286,76.018C212.49,47.674 188.616,34.771 165.446,34.793Z" style="fill:rgb(79,133,79);fill-rule:nonzero;"/>
</svg>
